X:1
T:Whate’er My God Ordains Is Right
T:Whate’er My God Ordains Is Right
T:Scott Werdebaugh (1951-)
T:Samuel Rodigast (1649–1708)
T:Copyright © 2019 by Scott Werdebaugh and New Heart Music - May copy and use freely for Christian worship and devotions with no alterations. All Other Rights Reserved.
T:Copyright © 2019 by Scott Werdebaugh and New Heart Music - May copy and use freely for Christian worship and devotions with no alterations. All Other Rights Reserved.
C:Scott Werdebaugh (1951-)
Z:Copyright © 2019 by Scott Werdebaugh and New Heart Music - May copy and use freely for
Z:Christian worship and devotions with no alterations. All Other Rights Reserved.
%%score ( 1 2 ) ( 3 4 )
L:1/8
Q:1/4=142
M:4/4
K:C
V:1 treble 
V:2 treble 
V:3 bass 
V:4 bass 
V:1
"^Dedicated to my friends, Paul and Ruthie LaFreniere, Sunday, August 18, 2019.""^Confidently" [EG]2 | %1
w: What-|
w: What-|
w: What-|
w: What-|
 [Ec]3 [Ec] [DB]2 [DB]2 | [Fc]3 [FA] [EG]2 [DG]2 | [CA]3 [DB] [Ec]2 [Ec]2 | (d3 c) [DB]3 z | %5
w: e'er my God or-|dains is right: His|ho- ly will a-|bid- * eth.|
w: e'er my God or-|dains is right: He|nev- er will de-|ceive * me.|
w: e'er my God or-|dains is right, Though|now this cup I'm|drink- * ing|
w: e'er my God or-|dains is right. Here|shall my stand be|tak- * en.|
 [Ec]4 [DB]2 [CA]2 | [EG]3 [DG] [CA]3 [CA] | [EG]3 z [EG]2 [FA][DB] | [Ec]3 [FA] ([GB]3 [Fc]) | %9
w: I will be|still what- e'er He|doth, And fol- low|where He guid- *|
w: He leads me|by the prop- er|path; I know He|will not leave *|
w: May bit- ter|seem to my faint|heart, I take it|all un- shrink- *|
w: Though sor- row,|need, or death be|mine, yet I am|not for- sak- *|
 [Ec]6 z2 | [Fc]4 [CA]2 [DB]2 | [Ec]4 (A2 B2) | [Fc]4 ([FA]2 [DG]2) | [EG]6 z2 | %14
w: eth.|He is my|God, though *|dark my *|road.|
w: me.|I take, con-|tent, what *|He hath *|sent.|
w: ing.|My God is|true each *|morn a- *|new.|
w: en.|My Fa- ther's|care is *|'round me *|there.|
 [CA]4 ([CA]2 [DB]2) | [Ec]4 [Fc]2 ([DB][Ec]) | [Fd]4 ([Ec]2 [DB]2) | [DB]6 z2 | %18
w: He holds *|me that I *|shall not *|fall.|
w: His hand *|can turn my *|griefs a- *|way,|
w: Sweet com- *|fort yet shall *|fill my *|heart,|
w: He holds *|me that I *|shall not *|fall,|
 [Ec]4 [Fc]2 [DB]2 | [CA]4 ([DB]2 [Ec]2) | [Fc]4 ([FA]3 [DG]) | [EG]6 z2 | [CA]4 [DB]2 [Ec]2 | %23
w: And so to|Him, I *|leave it *|all,|He holds me|
w: And pa- tient-|ly, I *|wait His *|day,|His hand can|
w: And pain and|sor- row *|shall de- *|part,|Sweet com- fort|
w: And so to|Him, I *|leave it *|all,|He holds me|
 [Fc]4 (c2 A2) | [Ec]4 ([DB]3 [Fc]) | [Ec]6 z2"^Play 4 times" :| %26
w: that I *|shall not *|fall.|
w: turn my *|griefs a- *|way.|
w: yet shall *|fill my *|heart.|
w: that I *|shall not *|fall.|
V:2
 x2 | x8 | x8 | x8 | F4 x4 | x8 | x8 | x8 | x8 | x8 | x8 | x4 F4 | x8 | x8 | x8 | x8 | x8 | x8 | %18
 x8 | x8 | x8 | x8 | x8 | x4 F4 | x8 | x8 :| %26
V:3
 [C,C]2 | [C,G,]3 [C,G,] [G,B,]2 [G,B,]2 | [F,A,]3 [F,C] [C,C]2 [G,B,]2 | %3
 [F,A,]3 [B,,G,] [C,G,]2 [C,G,]2 | (B,2 A,2) [G,,G,]3 z | [C,G,]4 [G,B,]2 [F,A,]2 | %6
 [C,C]3 [G,B,] [F,A,]3 [F,A,] | [C,C]3 z [C,C]2 [F,C][B,,G,] | [C,G,]3 [F,C] ([G,D]2 [F,A,]2) | %9
 [C,G,]6 z2 | [F,A,]4 [F,A,]2 [B,,G,]2 | [C,G,]4 (C2 G,2) | [F,A,]4 ([F,C]2 [G,B,]2) | [C,C]6 z2 | %14
 [F,A,]4 [F,A,]2 [B,,G,]2 | [C,G,]4 [F,A,]2 ([B,,G,][C,G,]) | [G,B,]4 G,4 | [G,,G,]6 z2 | %18
 [C,G,]4 [F,A,]2 [G,B,]2 | [F,A,]4 G,4 | [F,A,]4 ([F,C]2 [G,B,]2) | [C,C]6 z2 | %22
 [F,A,]4 [B,,G,]2 [C,G,]2 | [F,A,]4 (A,2 C2) | [G,C]4 ([G,B,]2 [F,A,]2) | %25
 [C,G,]6 z2"^Play 4 times" :| %26
V:4
 x2 | x8 | x8 | x8 | G,4 x4 | x8 | x8 | x8 | x8 | x8 | x8 | x4 F,4 | x8 | x8 | x8 | x8 | %16
 x4 (C,2 B,,2) | x8 | x8 | x4 (B,,2 C,2) | x8 | x8 | x8 | x4 F,4 | x8 | x8 :| %26

